Sources/FrostedUI/Resources/Icons.xcassets/trashFilled16.imageset/trash-filled-16.svg

<svg width="16" height="16" viewBox="0 0 16 16" fill="none" xmlns="http://www.w3.org/2000/svg" data-fui-icon="true">
  <path
    d="M13.627 6C14.0777 6.00025 14.4267 6.39542 14.3711 6.84277L13.5205 13.6777V13.6787H13.5195C13.4115 14.9879 12.3186 16 11 16H5C3.68109 16 2.58706 14.9874 2.47949 13.6777L1.62891 6.84277C1.57326 6.39542 1.92232 6.00026 2.37305 6H13.627ZM8.92285 0.00976562C10.0846 0.108539 11.0695 0.935258 11.3564 2.08301L11.5859 3H15.25C15.6642 3 16 3.33579 16 3.75C16 4.16421 15.6642 4.5 15.25 4.5H0.75C0.335786 4.5 0 4.16421 0 3.75C0 3.33579 0.335786 3 0.75 3H4.41406L4.64355 2.08301C4.9496 0.858808 6.04965 1.34137e-05 7.31152 0H8.68848L8.92285 0.00976562ZM7.31152 1.5C6.73795 1.50001 6.23774 1.89082 6.09863 2.44727L5.95996 3H10.04L9.90137 2.44727C9.77094 1.92555 9.32303 1.54977 8.79492 1.50488L8.68848 1.5H7.31152Z"
    fill="currentColor"
  />
</svg>

<svg xmlns="http://www.w3.org/2000/svg" width="16" height="16" fill="none" data-fui-icon="true" viewBox="0 0 16 16"><path fill="currentColor" d="M13.627 6c.45 0 .8.395.744.843l-.85 6.835h-.002A2.53 2.53 0 0 1 11 16H5a2.53 2.53 0 0 1-2.52-2.322l-.851-6.835A.75.75 0 0 1 2.373 6zM8.923.01a2.75 2.75 0 0 1 2.433 2.073l.23.917h3.664a.75.75 0 0 1 0 1.5H.75a.75.75 0 0 1 0-1.5h3.664l.23-.917A2.75 2.75 0 0 1 7.312 0h1.376zM7.312 1.5a1.25 1.25 0 0 0-1.213.947L5.96 3h4.08l-.139-.553a1.25 1.25 0 0 0-1.106-.942L8.688 1.5z"/></svg>
